dhis-2/dhis-support/dhis-support-system/src/main/resources/SVGs/sexual_reproductive_health_negative.svg

<?xml version="1.0" encoding="UTF-8" standalone="no"?>
<!-- Created with Inkscape (http://www.inkscape.org/) -->
<svg id="svg8" xmlns:rdf="http://www.w3.org/1999/02/22-rdf-syntax-ns#" xmlns="http://www.w3.org/2000/svg" xmlns:osb="http://www.openswatchbook.org/uri/2009/osb" height="48" width="48" version="1.1" xmlns:cc="http://creativecommons.org/ns#" viewBox="0 0 12.7 12.7" xmlns:dc="http://purl.org/dc/elements/1.1/">
 <title id="title4753">UIO-icon</title>
 <metadata id="metadata5">
  <rdf:RDF>
   <cc:Work rdf:about="">
    <dc:format>image/svg+xml</dc:format>
    <dc:type rdf:resource="http://purl.org/dc/dcmitype/StillImage"/>
    <dc:title>UIO-icon</dc:title>
    <dc:creator>
     <cc:Agent>
      <dc:title>Joaquín Urbano</dc:title>
     </cc:Agent>
    </dc:creator>
    <dc:rights>
     <cc:Agent>
      <dc:title>GPL</dc:title>
     </cc:Agent>
    </dc:rights>
   </cc:Work>
  </rdf:RDF>
 </metadata>
 <g id="layer1" transform="translate(0,-284.3)">
  <g id="layer1-7" transform="translate(-39.224 9.8557)">
   <path id="rect4944" d="m0 0v48h48v-48zm36.367 4.0898 2.807 2.6817 2.291-2.2949 1.787 1.7871-2.299 2.4199 2.682 2.6814-1.783 1.783-2.678-2.677-4.725 4.59c1.531 1.913 2.426 4.336 2.426 6.759 0 5.9939-4.8466 10.713-10.713 10.713-2.0019 0-3.8622-0.58258-5.4746-1.5449 0.75725-0.47413 1.4783-1.0141 2.1523-1.6211 1.0207 0.4667 2.1397 0.74023 3.3223 0.74023 4.4635 0 8.1621-3.6959 8.1621-8.2871 0-4.4633-3.6986-8.1641-8.1621-8.1641s-8.1602 3.7008-8.1602 8.1641c0 1.9479 0.69307 3.7116 1.8008 5.123-0.65649 0.53762-1.3616 0.99817-2.1055 1.3848-1.3855-1.7987-2.2461-4.0307-2.2461-6.5078 0-5.8662 4.8447-10.586 10.711-10.586 2.2955 0 4.591 0.76307 6.5039 2.166l4.721-4.7164-2.807-2.8066zm-21.07 6.9672c1.6712 0.066838 3.3271 0.53168 4.8184 1.3926-0.77744 0.50909-1.5063 1.0776-2.1738 1.7031-2.0767-0.86389-4.442-0.83114-6.5078 0.1543-3.9841 1.9007-5.6705 6.6702-3.7695 10.654 1.9021 3.9836 6.6706 5.6724 10.654 3.7695 3.9841-1.9021 5.6724-6.6745 3.7695-10.658-0.29328-0.61302-0.67026-1.1708-1.1035-1.6855 0.62129-0.53592 1.2849-1.0218 2.0176-1.4258 0.51002 0.6322 0.97069 1.3059 1.3242 2.0469 2.4917 5.2188 0.28262 11.468-4.9355 13.961-2.1796 1.0396-4.6522 1.2965-6.998 0.72266l-2.7207 7.6973 4.1719-0.4375-7.1738 4.959-2.3047-8.3105 2.9492 3.0098 2.7578-7.8027c-2.0273-1.046-3.6598-2.721-4.6472-4.776-2.4937-5.22-0.2815-11.472 4.9392-13.965 1.56-0.744 3.255-1.079 4.932-1.011z" fill-rule="evenodd" transform="matrix(.26458 0 0 .26458 39.224 274.44)" fill="#333"/>
  </g>
 </g>
</svg>

<svg width="48" height="48" viewBox="0 0 48 48" fill="none" xmlns="http://www.w3.org/2000/svg">
<g clip-path="url(#clip0)">
<path fill-rule="evenodd" clip-rule="evenodd" d="M0 -0.0161133V47.9833H47.9994V-0.0161133H0ZM36.3665 4.07364L39.1735 6.7553L41.4645 4.46043L43.2515 6.24751L40.9525 8.66738L43.6345 11.3487L41.8515 13.1317L39.1735 10.4548L34.4486 15.0447C35.9796 16.9577 36.8745 19.3806 36.8745 21.8036C36.8745 27.7974 32.028 32.5165 26.1617 32.5165C24.1598 32.5165 22.2995 31.9339 20.6871 30.9716C21.4444 30.4975 22.1654 29.9575 22.8394 29.3505C23.8601 29.8172 24.9791 30.0907 26.1617 30.0907C30.6251 30.0907 34.3237 26.3949 34.3237 21.8037C34.3237 17.3405 30.6251 13.6397 26.1617 13.6397C21.6982 13.6397 18.0016 17.3405 18.0016 21.8037C18.0016 23.7516 18.6946 25.5153 19.8024 26.9267C19.1459 27.4643 18.4408 27.9248 17.6969 28.3115C16.3114 26.5128 15.4508 24.2808 15.4508 21.8037C15.4508 15.9376 20.2954 11.2179 26.1617 11.2179C28.4571 11.2179 30.7526 11.9809 32.6655 13.3838L37.3864 8.66751L34.5795 5.86094L36.3665 4.07364ZM15.2968 11.0407C16.968 11.1076 18.6239 11.5724 20.1151 12.4333C19.3377 12.9424 18.6089 13.5109 17.9414 14.1364C15.8647 13.2725 13.4994 13.3053 11.4337 14.2907C7.44961 16.1914 5.76323 20.9608 7.6642 24.9446C9.56628 28.9281 14.3347 30.6169 18.3181 28.714C22.3021 26.8119 23.9904 22.0396 22.0875 18.0562C21.7942 17.4431 21.4173 16.8854 20.984 16.3707C21.6053 15.8348 22.2689 15.3489 23.0016 14.9449C23.5116 15.5771 23.9723 16.2508 24.3258 16.9918C26.8175 22.2105 24.6084 28.4596 19.3904 30.9526C17.2108 31.9922 14.7382 32.2491 12.3924 31.6752L9.67178 39.3725L13.8436 38.935L6.66992 43.8939L4.36525 35.5835L7.31441 38.5933L10.0722 30.7907C8.0449 29.7447 6.41242 28.0697 5.42503 26.0147C2.93136 20.7948 5.14354 14.5429 10.3642 12.0499C11.9242 11.3059 13.6191 10.9709 15.2961 11.0389L15.2968 11.0407Z" fill="#333333"/>
</g>
<defs>
<clipPath id="clip0">
<rect width="48" height="48" fill="white"/>
</clipPath>
</defs>
</svg>
